X:13
T:Freda
C:Kenny Baker
O:from Carthy Sisco
Z:abc-transcription Josh Larios <hades@elsewhere.org>, 2020.01.14
Z:abc-copyright This transcription is licensed under a Creative Commons Attribution-ShareAlike 4.0 International License.
M:C|
G:Key: D
K:D
[P:A1]y0 D2 | "D"F2A2F2A2 | "G"GG AB d2A2 | "D"FF AB d2 A2 | "A"G2F2E2D2 | 
"D"F2A2F2A2 | "G"GG AB d2A2 | "D"FF AB "(G)"d2 e2 | "A"fd ec "D"d2d2 | 
[P:A2]yyy"D"DF Ac d2 d2 | "G"BA Bc d2 d2 | "D"DF Ac d2A2 | "A"G2F2E2D2 | 
"D"F2A2F2A2 | "G"GG AB d2A2 | "D"FF AB "(G)"d2 e2 | "A"fd ec "D"d2 |
[P:B]y0|: A2 | "D"d2 a2 f2 af | "G"ef ed B2 A2 | "D"d2 a2 f2 af | "A"ed ef a2 A2 | 
"D"d2 a2 f2 af | "G"ef ed B2 A2 | "A"dA Bd BA FB | AF E2 "D"D2 :|

